24x24/apps/opensnitch-ui.svg

<svg xmlns="http://www.w3.org/2000/svg" width="24" height="24" version="1">
 <rect style="opacity:0.2" width="20" height="20" x="2" y="2.5" rx="6" ry="6"/>
 <rect style="fill:#e83c3c" width="20" height="20" x="2" y="2" rx="6" ry="6"/>
 <path style="opacity:0.2;fill:#f4f4f7" d="M 8,2 C 4.676,2 2,4.676 2,8 v 0.5 c 0,-3.324 2.676,-6 6,-6 h 8 c 3.324,0 6,2.676 6,6 V 8 C 22,4.676 19.324,2 16,2 Z"/>
 <path style="opacity:0.2" d="m 13.808594,6.503806 v 0.00195 C 13.036275,6.542804 12.384477,6.7581283 11.742188,7.1873998 11.469013,7.3699413 11.056632,7.7406264 10.875,7.9706029 c -0.09126,0.1157575 -0.09022,0.1177763 -0.230469,0.082031 -0.07917,-0.019835 -0.373548,-0.035906 -0.6738279,-0.035156 -0.4706575,0.001 -0.5662764,0.01054 -0.8339843,0.082031 C 7.6245337,8.5028572 6.575386,9.7731958 6.4921875,11.300682 l -0.019531,0.347657 -0.1191406,0.03516 C 5.9231931,11.812347 5.3858245,12.149529 5.0078125,12.527245 4.5569665,12.977707 4.2535181,13.510327 4.0820312,14.150292 4.0094867,14.421013 4,14.511879 4,15.001854 c 0,0.489987 0.00949,0.578849 0.082031,0.849609 0.3730493,1.392137 1.5022079,2.415158 2.8886719,2.617188 v -0.002 c 0.101807,0.01489 2.241123,0.02865 4.7539061,0.03125 4.8955,0.0039 4.822627,0.006 5.396485,-0.152344 0.541986,-0.149467 1.284562,-0.58959 1.708984,-1.013672 0.444213,-0.443825 0.872886,-1.17915 1.027344,-1.761719 0.378652,-1.428276 -0.0047,-2.859524 -1.041016,-3.886718 -0.183111,-0.181499 -0.448286,-0.404253 -0.58789,-0.496094 l -0.251954,-0.167969 0.01563,-0.351562 C 18.022073,9.9910647 17.891717,9.370607 17.59375,8.7616186 17.179358,7.9146754 16.578091,7.3143224 15.730469,6.9002904 15.114357,6.5994559 14.49468,6.4712411 13.808594,6.503806 Z m 0.04687,1 c 0.534152,-0.025355 0.957066,0.06129 1.435547,0.2949219 0.672544,0.3285125 1.075613,0.7305703 1.404296,1.4023438 0.230265,0.4706175 0.319961,0.9011503 0.296876,1.4238293 l -0.01563,0.351562 a 1.0001,1.0001 0 0 0 0.449219,0.88086 l 0.253907,0.166016 c 3.71e-4,2.44e-4 0.298105,0.240687 0.43164,0.373046 0.794019,0.787047 1.072705,1.813185 0.779297,2.919922 -0.09042,0.341027 -0.486277,1.027539 -0.767578,1.308594 -0.257155,0.256948 -0.98521,0.679942 -1.267578,0.757812 -0.296147,0.0817 -0.209563,0.08376 -0.839844,0.101563 -0.630137,0.01779 -1.844246,0.01758 -4.291016,0.01563 -1.254921,-0.0013 -2.4164449,-0.0063 -3.2753902,-0.01172 -0.4294742,-0.0028 -0.7832437,-0.0064 -1.0332032,-0.0098 -0.1249695,-0.0016 -0.2246421,-0.0042 -0.2910156,-0.0059 -0.01759,-4.38e-4 -0.03786,-0.0035 -0.060547,-0.0059 C 6.1014886,17.305929 5.3162485,16.59694 5.046875,15.591698 4.9834345,15.354917 5,15.480307 5,15.001854 5,14.523413 4.983439,14.648741 5.046875,14.41201 5.1777,13.923789 5.3841153,13.566676 5.7148438,13.236229 5.9680012,12.983268 6.4494975,12.699707 6.640625,12.642479 l 0.1171875,-0.03516 a 1.0001,1.0001 0 0 0 0.7128906,-0.904297 l 0.019531,-0.347656 c 0.06,-1.10157 0.785873,-1.9907433 1.9042968,-2.289064 a 1.0001,1.0001 0 0 0 0.00195,0 C 9.6279214,9.004489 9.5171644,9.018469 9.9746059,9.017474 10.107,9.0171435 10.241197,9.020214 10.339841,9.025284 c 0.04932,0.00255 0.110713,0.013193 0.136718,0.017578 0.09924,0.03637 0.271692,0.094132 0.628907,-0.029297 0.437525,-0.151179 0.509013,-0.363462 0.554687,-0.421875 l 0.002,-0.00195 c 0.05376,-0.067583 0.499726,-0.4820287 0.634766,-0.5722657 0.510237,-0.3410145 0.944889,-0.4840974 1.558594,-0.5136719 z M 13,10.499901 v 1 H 9 v 1 h 4 v 1 l 2,-1.511719 z m -2,3 -2,1.488281 2,1.511719 v -1 h 4 v -1 h -4 z"/>
 <path style="fill:#f4f4f7" d="M 13.808594 6.0039062 L 13.808594 6.0058594 C 13.036275 6.0429044 12.384477 6.2582285 11.742188 6.6875 C 11.469013 6.8700415 11.056632 7.2407266 10.875 7.4707031 C 10.783744 7.5864606 10.784779 7.5884794 10.644531 7.5527344 C 10.565357 7.5328994 10.270983 7.5168281 9.9707031 7.5175781 C 9.5000456 7.5185781 9.4044267 7.5281179 9.1367188 7.5996094 C 7.6245337 8.0029574 6.575386 9.273296 6.4921875 10.800781 L 6.4726562 11.148438 L 6.3535156 11.183594 C 5.9231931 11.312446 5.3858245 11.649628 5.0078125 12.027344 C 4.5569665 12.477806 4.2535181 13.010426 4.0820312 13.650391 C 4.0094867 13.921112 4 14.011978 4 14.501953 C 4 14.99194 4.0094862 15.080802 4.0820312 15.351562 C 4.4550805 16.743699 5.5842391 17.76672 6.9707031 17.96875 L 6.9707031 17.966797 C 7.0725101 17.981687 9.2118261 17.995447 11.724609 17.998047 C 16.620109 18.001947 16.547236 18.004047 17.121094 17.845703 C 17.66308 17.696236 18.405656 17.256113 18.830078 16.832031 C 19.274291 16.388206 19.702964 15.652881 19.857422 15.070312 C 20.236074 13.642036 19.852722 12.210788 18.816406 11.183594 C 18.633295 11.002095 18.36812 10.779341 18.228516 10.6875 L 17.976562 10.519531 L 17.992188 10.167969 C 18.022073 9.4911649 17.891717 8.8707072 17.59375 8.2617188 C 17.179358 7.4147756 16.578091 6.8144226 15.730469 6.4003906 C 15.114357 6.0995561 14.49468 5.9713413 13.808594 6.0039062 z M 13.855469 7.0039062 C 14.389621 6.9785512 14.812535 7.0651961 15.291016 7.2988281 C 15.96356 7.6273406 16.366629 8.0293984 16.695312 8.7011719 C 16.925577 9.1717894 17.015273 9.602322 16.992188 10.125 L 16.976562 10.476562 A 1.0001 1.0001 0 0 0 17.425781 11.357422 L 17.679688 11.523438 C 17.680059 11.523682 17.977793 11.764125 18.111328 11.896484 C 18.905347 12.683531 19.184033 13.709669 18.890625 14.816406 C 18.800205 15.157433 18.404348 15.843945 18.123047 16.125 C 17.865892 16.381948 17.137837 16.804942 16.855469 16.882812 C 16.559322 16.964513 16.645906 16.966572 16.015625 16.984375 C 15.385488 17.002165 14.171379 17.00195 11.724609 17 C 10.469688 16.9987 9.3081641 16.993721 8.4492188 16.988281 C 8.0197446 16.985481 7.6659751 16.981916 7.4160156 16.978516 C 7.2910461 16.976901 7.1913735 16.974306 7.125 16.972656 C 7.10741 16.972218 7.0871401 16.969157 7.0644531 16.966797 C 6.1014886 16.806028 5.3162485 16.097039 5.046875 15.091797 C 4.9834345 14.855016 5 14.980406 5 14.501953 C 5 14.023512 4.983439 14.14884 5.046875 13.912109 C 5.1777 13.423888 5.3841153 13.066775 5.7148438 12.736328 C 5.9680012 12.483367 6.4494975 12.199806 6.640625 12.142578 L 6.7578125 12.107422 A 1.0001 1.0001 0 0 0 7.4707031 11.203125 L 7.4902344 10.855469 C 7.5502344 9.7538995 8.2761074 8.8647269 9.3945312 8.5664062 A 1.0001 1.0001 0 0 0 9.3964844 8.5664062 C 9.6279249 8.5045937 9.5171679 8.5185731 9.9746094 8.5175781 C 10.107003 8.5172476 10.2412 8.5203206 10.339844 8.5253906 C 10.389164 8.5279406 10.450557 8.5385836 10.476562 8.5429688 C 10.575802 8.5793386 10.748254 8.6371009 11.105469 8.5136719 C 11.542994 8.3624929 11.614482 8.1502099 11.660156 8.0917969 L 11.662109 8.0898438 C 11.715869 8.0222606 12.161835 7.6078151 12.296875 7.5175781 C 12.807112 7.1765636 13.241764 7.0334807 13.855469 7.0039062 z M 13 10 L 13 11 L 9 11 L 9 12 L 13 12 L 13 13 L 15 11.488281 L 13 10 z M 11 13 L 9 14.488281 L 11 16 L 11 15 L 15 15 L 15 14 L 11 14 L 11 13 z"/>
 <path style="fill:#f4f4f7" d="m 7.1035155,16.976562 c 0.01024,0.0015 -9e-4,1.04e-4 0.01172,0.0019 a 1.0001,1.0001 0 0 0 -0.0039,0 c -0.0027,-3.94e-4 -0.00513,-0.0015 -0.00781,-0.0019 z"/>
</svg>

<svg xmlns="http://www.w3.org/2000/svg" width="24" height="24" version="1"><rect style="opacity:.2" width="20" height="20" x="2" y="2.5" rx="6" ry="6"/><rect style="fill:#e83c3c" width="20" height="20" x="2" y="2" rx="6" ry="6"/><path style="opacity:.2;fill:#f4f4f7" d="M8 2C4.676 2 2 4.676 2 8v.5c0-3.324 2.676-6 6-6h8c3.324 0 6 2.676 6 6V8c0-3.324-2.676-6-6-6z"/><path style="opacity:.2" d="M13.809 6.504v.002a3.897 3.897 0 0 0-2.067.681 4.73 4.73 0 0 0-.867.784c-.091.115-.09.117-.23.082-.08-.02-.374-.036-.674-.036-.471.001-.567.011-.834.083-1.512.403-2.562 1.673-2.645 3.2l-.02.348-.118.035c-.43.13-.968.467-1.346.844a3.52 3.52 0 0 0-.926 1.623c-.073.271-.082.362-.082.852s.01.579.082.85c.373 1.392 1.502 2.415 2.889 2.617v-.002c.102.015 2.24.028 4.754.03 4.895.005 4.822.007 5.396-.151.542-.15 1.285-.59 1.71-1.014.443-.444.872-1.18 1.026-1.762.38-1.428-.004-2.86-1.04-3.887a4.844 4.844 0 0 0-.588-.496l-.252-.168.015-.351c.03-.677-.1-1.297-.398-1.906A3.89 3.89 0 0 0 15.73 6.9a3.832 3.832 0 0 0-1.921-.396zm.046 1c.535-.026.958.061 1.436.295.673.328 1.076.73 1.404 1.402.23.47.32.901.297 1.424l-.015.351a1 1 0 0 0 .449.881l.254.166s.298.241.431.373c.794.787 1.073 1.814.78 2.92-.09.341-.487 1.028-.768 1.309-.257.257-.985.68-1.268.758-.296.081-.21.083-.84.101-.63.018-1.844.018-4.29.016a640.566 640.566 0 0 1-3.276-.012c-.43-.003-.783-.006-1.033-.01-.125-.001-.225-.004-.291-.006-.018 0-.038-.003-.06-.005-.964-.161-1.749-.87-2.018-1.875-.064-.237-.047-.112-.047-.59 0-.479-.017-.353.047-.59.13-.488.337-.845.668-1.176.253-.253.734-.536.926-.594l.117-.035a1 1 0 0 0 .713-.904l.02-.348c.06-1.101.785-1.99 1.904-2.289a1 1 0 0 0 .001 0c.232-.062.121-.048.579-.049.132 0 .266.003.365.008.05.003.11.013.137.018.099.036.271.094.628-.03.438-.15.51-.363.555-.421l.002-.002c.054-.068.5-.482.635-.573.51-.34.945-.484 1.559-.513zM13 10.5v1H9v1h4v1l2-1.512zm-2 3-2 1.488 2 1.512v-1h4v-1h-4z"/><path style="fill:#f4f4f7" d="M13.809 6.004v.002a3.897 3.897 0 0 0-2.067.681 4.73 4.73 0 0 0-.867.784c-.091.115-.09.117-.23.082-.08-.02-.374-.036-.674-.035-.471 0-.567.01-.834.082-1.512.403-2.562 1.673-2.645 3.2l-.02.348-.118.036c-.43.128-.968.466-1.346.843a3.52 3.52 0 0 0-.926 1.623c-.073.271-.082.362-.082.852s.01.579.082.85c.373 1.392 1.502 2.415 2.889 2.617v-.002c.102.015 2.24.028 4.754.031 4.895.004 4.822.006 5.396-.152.542-.15 1.285-.59 1.71-1.014.443-.444.872-1.18 1.026-1.762.38-1.428-.004-2.86-1.04-3.886a4.844 4.844 0 0 0-.588-.496l-.252-.168.015-.352c.03-.677-.1-1.297-.398-1.906A3.89 3.89 0 0 0 15.73 6.4a3.832 3.832 0 0 0-1.921-.396zm.046 1c.535-.025.958.061 1.436.295.673.328 1.076.73 1.404 1.402.23.47.32.901.297 1.424l-.015.352a1 1 0 0 0 .449.88l.254.166s.298.241.431.373c.794.788 1.073 1.814.78 2.92-.09.341-.487 1.028-.768 1.309-.257.257-.985.68-1.268.758-.296.082-.21.084-.84.101-.63.018-1.844.018-4.29.016a638.275 638.275 0 0 1-3.276-.012c-.43-.003-.783-.006-1.033-.01-.125-.001-.225-.004-.291-.005-.018 0-.038-.004-.06-.006-.964-.161-1.749-.87-2.018-1.875-.064-.237-.047-.112-.047-.59s-.017-.353.047-.59c.13-.488.337-.845.668-1.176.253-.253.734-.536.926-.593l.117-.036a1 1 0 0 0 .713-.904l.02-.348c.06-1.101.785-1.99 1.904-2.289a1 1 0 0 0 .001 0c.232-.061.121-.047.579-.048.132 0 .266.002.365.007.05.003.11.014.137.018.099.036.271.094.628-.03.438-.15.51-.363.555-.421l.002-.002c.054-.068.5-.482.635-.572.51-.341.945-.485 1.558-.514zM13 10v1H9v1h4v1l2-1.512L13 10zm-2 3-2 1.488L11 16v-1h4v-1h-4v-1z"/><path style="fill:#f4f4f7" d="m7.104 16.977.011.001a1 1 0 0 0-.004 0l-.007-.001z"/></svg>
